assets/images/members/trustsec/trustsec.svg

<svg xmlns="http://www.w3.org/2000/svg" baseProfile="tiny-ps" viewBox="0 0 486 329"><title>TrustSEC</title><style>.shp0{fill:#000}.shp1{fill:#f8be32}.shp3{fill:#f8bf35}</style><path id="r" d="M108.7 282c-1.5-.38-3.26-.78-5.28-1.19-2.03-.4-4.21-.62-6.53-.62-1.05 0-2.31.1-3.77.29-1.47.18-2.57.39-3.32.61v45.24H73.03v-56.04c3-1.05 6.54-2.04 10.64-2.98 4.08-.94 8.64-1.41 13.67-1.41.9 0 1.98.06 3.26.17s2.55.26 3.83.45c1.27.19 2.55.41 3.82.67q1.92.405 3.27.96z" class="shp1"/><path id="u" d="M168.24 324.31c-2.86.83-6.53 1.59-11.03 2.31-4.51.71-9.23 1.07-14.18 1.07-5.03 0-9.21-.68-12.55-2.03s-5.98-3.24-7.93-5.68c-1.96-2.44-3.34-5.35-4.17-8.73-.83-3.37-1.24-7.09-1.24-11.14v-32.97h16.77v30.94c0 5.41.71 9.31 2.14 11.71 1.42 2.4 4.09 3.61 7.99 3.61 1.2 0 2.48-.07 3.83-.18q2.025-.165 3.6-.39v-45.69h16.77z" class="shp1"/><path id="s" d="M198.17 314.29c3.08 0 5.25-.3 6.53-.89 1.27-.6 1.91-1.77 1.91-3.5 0-1.34-.82-2.53-2.47-3.54-1.66-1.01-4.17-2.16-7.54-3.43-2.63-.98-5.01-1.99-7.15-3.04s-3.96-2.31-5.46-3.77c-1.5-1.47-2.66-3.21-3.49-5.24-.82-2.02-1.23-4.46-1.23-7.31 0-5.55 2.06-9.94 6.18-13.16 4.13-3.23 9.79-4.84 17-4.84 3.6 0 7.05.32 10.35.95 3.3.64 5.93 1.33 7.88 2.08l-2.93 13.06q-2.925-1.02-6.36-1.8c-2.28-.52-4.85-.79-7.7-.79-5.25 0-7.88 1.46-7.88 4.39 0 .67.11 1.28.34 1.8.22.53.67 1.03 1.34 1.52.68.49 1.6 1.02 2.77 1.58 1.16.57 2.64 1.19 4.44 1.87 3.68 1.37 6.71 2.71 9.11 4.03 2.4 1.33 4.3 2.76 5.69 4.29 1.39 1.54 2.36 3.24 2.93 5.11q.84 2.805.84 6.51c0 5.84-2.2 10.25-6.59 13.25-4.38 3-10.59 4.49-18.62 4.49-5.26 0-9.62-.45-13.11-1.35q-5.235-1.35-7.26-2.25l2.81-13.62c2.85 1.13 5.78 2.01 8.78 2.65s5.97.95 8.89.95" class="shp1"/><path id="t" d="m232.38 252.4 16.77-2.7v17.44h20.15v13.95h-20.15v20.82c0 3.53.62 6.34 1.86 8.45 1.24 2.1 3.73 3.14 7.48 3.14 1.8 0 3.66-.16 5.57-.5 1.92-.34 3.66-.8 5.23-1.41l2.37 13.06c-2.03.82-4.28 1.53-6.76 2.14-2.47.6-5.51.89-9.11.89-4.57 0-8.36-.61-11.37-1.85-3-1.24-5.39-2.97-7.2-5.18-1.8-2.21-3.06-4.89-3.77-8.04-.71-3.16-1.07-6.64-1.07-10.47z" class="shp1"/><path id="S" d="M300.62 326.7v-22.35h2.57c2.9 14.56 9.79 21.84 20.66 21.84 4.88 0 8.67-1.39 11.35-4.18 2.68-2.78 4.03-5.9 4.03-9.35 0-3.49-1.18-6.41-3.54-8.77-2.36-2.32-6.66-4.82-12.92-7.48-5.57-2.39-9.78-4.49-12.61-6.28-2.84-1.8-5.05-4.13-6.64-7s-2.38-5.93-2.38-9.17c0-4.96 1.72-9.09 5.15-12.38 3.43-3.3 7.78-4.95 13.04-4.95 2.94 0 5.71.48 8.31 1.43 2.59.96 5.26 2.94 7.99 5.95 1.57-1.88 2.47-3.91 2.67-6.1h2.25v18.2h-2.25c-1.3-5.3-3.6-9.47-6.89-12.51q-4.95-4.56-11.46-4.56c-4.14 0-7.17 1.12-9.1 3.35-1.93 2.24-2.9 4.69-2.9 7.36 0 3.21 1.22 5.93 3.65 8.15 2.38 2.25 6.71 4.78 12.96 7.58 5.98 2.67 10.33 4.82 13.05 6.44s4.89 3.87 6.54 6.74c1.63 2.87 2.45 6.19 2.45 9.94 0 5.95-1.98 10.79-5.94 14.51-3.97 3.73-9.26 5.59-15.89 5.59-7.62 0-13.98-2.92-19.07-8.77-1.13 1.61-1.97 3.86-2.51 6.77z" class="shp0"/><path id="E" d="M411.35 305.79h2.46l-1.49 21.63h-57.57v-2.36h1.44q5.175 0 6.69-1.38c1-.93 1.65-2.09 1.92-3.51.28-1.42.41-5.04.41-10.85v-34.08c0-5.3-.14-8.79-.43-10.46-.29-1.68-.96-2.85-2-3.51-1.04-.67-3.24-1-6.59-1v-2.36h49.67l1.64 17.33h-2.4c-1.1-4.86-2.44-8.3-4.03-10.33-1.59-2.04-3.48-3.32-5.67-3.85-2.18-.53-5.7-.79-10.55-.79h-9.64v29.16h7.38c3.38 0 5.75-.28 7.1-.87q2.025-.87 2.67-2.64c.42-1.18.64-3.47.64-6.89h2.4v23.78H393c0-3.86-.33-6.45-.98-7.76-.65-1.32-1.59-2.17-2.84-2.57-1.25-.39-3.36-.59-6.33-.59h-7.64v16.46c0 8.23.52 13.08 1.58 14.53s3.92 2.18 8.57 2.18h5.18c3.65 0 6.66-.47 9.02-1.41s4.6-2.87 6.74-5.79c2.13-2.92 3.82-6.95 5.05-12.07" class="shp0"/><path id="C" d="M483.37 301.33h2.2v24.35h-2.2c-.62-2.77-1.73-5.21-3.33-7.33q-9.18 10.35-23.43 10.35c-10.05 0-18.26-3.18-24.63-9.53-6.38-6.36-9.56-14.77-9.56-25.22 0-6.87 1.46-13.34 4.41-19.41q4.41-9.09 12.3-13.5c5.26-2.94 11.04-4.41 17.33-4.41 5.19 0 9.89 1.07 14.12 3.2 4.22 2.14 7.37 4.51 9.46 7.1 1.46-2.9 2.35-5.91 2.66-9.02h2.26l.61 26.35h-2.2c-1.54-9.36-4.68-15.87-9.41-19.53q-7.095-5.49-16.02-5.49c-7.28 0-13.06 2.96-17.35 8.87-4.29 5.92-6.43 14.37-6.43 25.38 0 10.42 2.34 18.41 7.02 23.96 4.68 5.56 10.5 8.33 17.48 8.33 3.72 0 7.53-.9 11.43-2.71 3.9-1.82 6.98-4.88 9.25-9.2 2.28-4.33 3.62-8.51 4.03-12.54" class="shp0"/><path id="Shield" d="M154.53 40.33s49.12 5.13 97.51-30.06c0 0 39.58 26.39 98.23 34.46 0 0 10.27 123.9-96.04 170.09 0 0-112.9-66.72-99.7-174.49" class="shp0"/><path id="Layer" d="M251.9.58s28.13 30.35 104.39 34.05c0 0 9.88 138.7-104.39 188.06V206.4s86.63-34.79 88.85-156.96c0 0-63.68-11.11-88.85-29.62z" style="fill:#ce9f30"/><path d="M252.12.58s-28.14 30.35-104.4 34.05c0 0-9.87 138.7 104.4 188.06V206.4s-86.63-34.79-88.85-156.96c0 0 63.67-11.11 88.85-29.62z" class="shp3"/><path d="M267.45 69.19v-23.2c16.78 13.82 60.22 19.74 60.22 19.74v19.74c-42.94-2.46-60.22-16.28-60.22-16.28v-23.2" style="fill:#d0a02d"/><path d="M175.15 64.25c50.34-3.46 77.49-31.1 77.49-31.1v166.34l-20.24-11.84V72.64c-13.32 8.39-54.78 13.82-54.78 13.82z" class="shp3"/><path d="M.32 245.68c29.93-2.06 46.07-18.49 46.07-18.49v98.89l-12.03-7.05v-68.37c-7.93 4.99-32.57 8.22-32.57 8.22zM54.82 245.82v-12.47c9.03 7.43 32.38 10.62 32.38 10.62v10.61c-23.09-1.32-32.38-8.76-32.38-8.76v-12.47" class="shp0"/></svg>

<svg version="1.2" baseProfile="tiny-ps" xmlns="http://www.w3.org/2000/svg" viewBox="0 0 486 329">
	<title>TrustSEC</title>
	<style>
		tspan { white-space:pre }
		.shp0 { fill: #000000 } 
		.shp1 { fill: #f8be32 } 
		.shp2 { fill: #ce9f30 } 
		.shp3 { fill: #f8bf35 } 
		.shp4 { fill: #d0a02d } 
	</style>
	<path id="r" class="shp1" d="M108.7 282C107.2 281.62 105.44 281.22 103.42 280.81C101.39 280.41 99.21 280.19 96.89 280.19C95.84 280.19 94.58 280.29 93.12 280.48C91.65 280.66 90.55 280.87 89.8 281.09L89.8 326.33L73.03 326.33L73.03 270.29C76.03 269.24 79.57 268.25 83.67 267.31C87.75 266.37 92.31 265.9 97.34 265.9C98.24 265.9 99.32 265.96 100.6 266.07C101.88 266.18 103.15 266.33 104.43 266.52C105.7 266.71 106.98 266.93 108.25 267.19C109.53 267.46 110.62 267.78 111.52 268.15L108.7 282Z" />
	<path id="u" class="shp1" d="M168.24 324.31C165.38 325.14 161.71 325.9 157.21 326.62C152.7 327.33 147.98 327.69 143.03 327.69C138 327.69 133.82 327.01 130.48 325.66C127.14 324.31 124.5 322.42 122.55 319.98C120.59 317.54 119.21 314.63 118.38 311.25C117.55 307.88 117.14 304.16 117.14 300.11L117.14 267.14L133.91 267.14L133.91 298.08C133.91 303.49 134.62 307.39 136.05 309.79C137.47 312.19 140.14 313.4 144.04 313.4C145.24 313.4 146.52 313.33 147.87 313.22C149.22 313.11 150.42 312.98 151.47 312.83L151.47 267.14L168.24 267.14L168.24 324.31Z" />
	<path id="s" class="shp1" d="M198.17 314.29C201.25 314.29 203.42 313.99 204.7 313.4C205.97 312.8 206.61 311.63 206.61 309.9C206.61 308.56 205.79 307.37 204.14 306.36C202.48 305.35 199.97 304.2 196.6 302.93C193.97 301.95 191.59 300.94 189.45 299.89C187.31 298.84 185.49 297.58 183.99 296.12C182.49 294.65 181.33 292.91 180.5 290.88C179.68 288.86 179.27 286.42 179.27 283.57C179.27 278.02 181.33 273.63 185.45 270.41C189.58 267.18 195.24 265.57 202.45 265.57C206.05 265.57 209.5 265.89 212.8 266.52C216.1 267.16 218.73 267.85 220.68 268.6L217.75 281.66C215.8 280.98 213.68 280.38 211.39 279.86C209.11 279.34 206.54 279.07 203.69 279.07C198.44 279.07 195.81 280.53 195.81 283.46C195.81 284.13 195.92 284.74 196.15 285.26C196.37 285.79 196.82 286.29 197.49 286.78C198.17 287.27 199.09 287.8 200.26 288.36C201.42 288.93 202.9 289.55 204.7 290.23C208.38 291.6 211.41 292.94 213.81 294.26C216.21 295.59 218.11 297.02 219.5 298.55C220.89 300.09 221.86 301.79 222.43 303.66C222.99 305.53 223.27 307.7 223.27 310.17C223.27 316.01 221.07 320.42 216.68 323.42C212.3 326.42 206.09 327.91 198.06 327.91C192.8 327.91 188.44 327.46 184.95 326.56C181.46 325.66 179.04 324.91 177.69 324.31L180.5 310.69C183.35 311.82 186.28 312.7 189.28 313.34C192.28 313.98 195.25 314.29 198.17 314.29Z" />
	<path id="t" class="shp1" d="M232.38 252.4L249.15 249.7L249.15 267.14L269.3 267.14L269.3 281.09L249.15 281.09L249.15 301.91C249.15 305.44 249.77 308.25 251.01 310.36C252.25 312.46 254.74 313.5 258.49 313.5C260.29 313.5 262.15 313.34 264.06 313C265.98 312.66 267.72 312.2 269.29 311.59L271.66 324.65C269.63 325.47 267.38 326.18 264.9 326.79C262.43 327.39 259.39 327.68 255.79 327.68C251.22 327.68 247.43 327.07 244.42 325.83C241.42 324.59 239.03 322.86 237.22 320.65C235.42 318.44 234.16 315.76 233.45 312.61C232.74 309.45 232.38 305.97 232.38 302.14L232.38 252.4L232.38 252.4Z" />
	<path id="S" class="shp0" d="M300.62 326.7L300.62 304.35L303.19 304.35C306.09 318.91 312.98 326.19 323.85 326.19C328.73 326.19 332.52 324.8 335.2 322.01C337.88 319.23 339.23 316.11 339.23 312.66C339.23 309.17 338.05 306.25 335.69 303.89C333.33 301.57 329.03 299.07 322.77 296.41C317.2 294.02 312.99 291.92 310.16 290.13C307.32 288.33 305.11 286 303.52 283.13C301.93 280.26 301.14 277.2 301.14 273.96C301.14 269 302.86 264.87 306.29 261.58C309.72 258.28 314.07 256.63 319.33 256.63C322.27 256.63 325.04 257.11 327.64 258.06C330.23 259.02 332.9 261 335.63 264.01C337.2 262.13 338.1 260.1 338.3 257.91L340.55 257.91L340.55 276.11L338.3 276.11C337 270.81 334.7 266.64 331.41 263.6C328.11 260.56 324.29 259.04 319.95 259.04C315.81 259.04 312.78 260.16 310.85 262.39C308.92 264.63 307.95 267.08 307.95 269.75C307.95 272.96 309.17 275.68 311.6 277.9C313.98 280.15 318.31 282.68 324.56 285.48C330.54 288.15 334.89 290.3 337.61 291.92C340.33 293.54 342.5 295.79 344.15 298.66C345.78 301.53 346.6 304.85 346.6 308.6C346.6 314.55 344.62 319.39 340.66 323.11C336.69 326.84 331.4 328.7 324.77 328.7C317.15 328.7 310.79 325.78 305.7 319.93C304.57 321.54 303.73 323.79 303.19 326.7L300.62 326.7L300.62 326.7Z" />
	<path id="E" class="shp0" d="M411.35 305.79L413.81 305.79L412.32 327.42L354.75 327.42L354.75 325.06L356.19 325.06C359.64 325.06 361.87 324.6 362.88 323.68C363.88 322.75 364.53 321.59 364.8 320.17C365.08 318.75 365.21 315.13 365.21 309.32L365.21 275.24C365.21 269.94 365.07 266.45 364.78 264.78C364.49 263.1 363.82 261.93 362.78 261.27C361.74 260.6 359.54 260.27 356.19 260.27L356.19 257.91L405.86 257.91L407.5 275.24L405.1 275.24C404 270.38 402.66 266.94 401.07 264.91C399.48 262.87 397.59 261.59 395.4 261.06C393.22 260.53 389.7 260.27 384.85 260.27L375.21 260.27L375.21 289.43L382.59 289.43C385.97 289.43 388.34 289.15 389.69 288.56C391.04 287.98 391.93 287.1 392.36 285.92C392.78 284.74 393 282.45 393 279.03L395.4 279.03L395.4 302.81L393 302.81C393 298.95 392.67 296.36 392.02 295.05C391.37 293.73 390.43 292.88 389.18 292.48C387.93 292.09 385.82 291.89 382.85 291.89L375.21 291.89L375.21 308.35C375.21 316.58 375.73 321.43 376.79 322.88C377.85 324.33 380.71 325.06 385.36 325.06L390.54 325.06C394.19 325.06 397.2 324.59 399.56 323.65C401.92 322.71 404.16 320.78 406.3 317.86C408.43 314.94 410.12 310.91 411.35 305.79Z" />
	<path id="C" class="shp0" d="M483.37 301.33L485.57 301.33L485.57 325.68L483.37 325.68C482.75 322.91 481.64 320.47 480.04 318.35C473.92 325.25 466.11 328.7 456.61 328.7C446.56 328.7 438.35 325.52 431.98 319.17C425.6 312.81 422.42 304.4 422.42 293.95C422.42 287.08 423.88 280.61 426.83 274.54C429.77 268.48 433.87 263.98 439.13 261.04C444.39 258.1 450.17 256.63 456.46 256.63C461.65 256.63 466.35 257.7 470.58 259.83C474.8 261.97 477.95 264.34 480.04 266.93C481.5 264.03 482.39 261.02 482.7 257.91L484.96 257.91L485.57 284.26L483.37 284.26C481.83 274.9 478.69 268.39 473.96 264.73C469.23 261.07 463.89 259.24 457.94 259.24C450.66 259.24 444.88 262.2 440.59 268.11C436.3 274.03 434.16 282.48 434.16 293.49C434.16 303.91 436.5 311.9 441.18 317.45C445.86 323.01 451.68 325.78 458.66 325.78C462.38 325.78 466.19 324.88 470.09 323.07C473.99 321.25 477.07 318.19 479.34 313.87C481.62 309.54 482.96 305.36 483.37 301.33Z" />
	<path id="Shield" class="shp0" d="M154.53 40.33C154.53 40.33 203.65 45.46 252.04 10.27C252.04 10.27 291.62 36.66 350.27 44.73C350.27 44.73 360.54 168.63 254.23 214.82C254.23 214.82 141.33 148.1 154.53 40.33Z" />
	<path id="Layer" class="shp2" d="M251.9 0.58C251.9 0.58 280.03 30.93 356.29 34.63C356.29 34.63 366.17 173.33 251.9 222.69L251.9 206.4C251.9 206.4 338.53 171.61 340.75 49.44C340.75 49.44 277.07 38.33 251.9 19.82L251.9 0.58L251.9 0.58Z" />
	<path id="Layer" class="shp3" d="M252.12 0.58C252.12 0.58 223.98 30.93 147.72 34.63C147.72 34.63 137.85 173.33 252.12 222.69L252.12 206.4C252.12 206.4 165.49 171.61 163.27 49.44C163.27 49.44 226.94 38.33 252.12 19.82L252.12 0.58Z" />
	<path id="Layer" class="shp4" d="M267.45 69.19L267.45 45.99C284.23 59.81 327.67 65.73 327.67 65.73L327.67 85.47C284.73 83.01 267.45 69.19 267.45 69.19L267.45 45.99" />
	<path id="Layer" class="shp3" d="M175.15 64.25C225.49 60.79 252.64 33.15 252.64 33.15L252.64 199.49L232.4 187.65L232.4 72.64C219.08 81.03 177.62 86.46 177.62 86.46L175.15 64.25Z" />
	<path id="Layer" class="shp0" d="M0.32 245.68C30.25 243.62 46.39 227.19 46.39 227.19L46.39 326.08L34.36 319.03L34.36 250.66C26.43 255.65 1.79 258.88 1.79 258.88L0.32 245.68Z" />
	<path id="Layer" class="shp0" d="M54.82 245.82L54.82 233.35C63.85 240.78 87.2 243.97 87.2 243.97L87.2 254.58C64.11 253.26 54.82 245.82 54.82 245.82L54.82 233.35" />
</svg>
